packages/kaspersky-hexa-ui-icons/src/iconsSVGs/24/AliExpressColor.svg

<svg width="24" height="24" viewBox="0 0 24 24" fill="none" xmlns="http://www.w3.org/2000/svg">
<path d="M4.40625 3C4.03329 3 3.6756 3.14816 3.41188 3.41188C3.14816 3.6756 3 4.03329 3 4.40625V19.5938C3 19.9667 3.14816 20.3244 3.41188 20.5881C3.6756 20.8518 4.03329 21 4.40625 21H19.5938C19.9667 21 20.3244 20.8518 20.5881 20.5881C20.8518 20.3244 21 19.9667 21 19.5938V4.40625C21 4.03329 20.8518 3.6756 20.5881 3.41188C20.3244 3.14816 19.9667 3 19.5938 3H4.40625Z" fill="#E62E04"/>
<path d="M7.95005 9.03335C8.01895 9.3146 7.98014 9.61835 8.04792 9.90438C8.28417 9.73141 8.44167 9.44594 8.40933 9.14866C8.40455 8.61654 7.80605 8.19944 7.30514 8.3786C6.99014 8.4686 6.75727 8.75126 6.70439 9.07048C6.64139 9.4361 6.86105 9.81016 7.18758 9.97723C7.15524 9.66223 7.07958 9.33035 7.16424 9.0221C7.29361 8.68629 7.83052 8.69304 7.95005 9.03335ZM17.2701 9.41473C17.3849 9.00185 17.1351 8.52316 16.7256 8.39097C16.3319 8.23629 15.8445 8.43316 15.6709 8.81679C15.4774 9.17201 15.5944 9.67741 15.9482 9.88554C16.018 9.60035 15.9665 9.29491 16.0495 9.01788C16.1817 8.68685 16.7118 8.69641 16.8325 9.03194C16.9093 9.33176 16.8398 9.64676 16.8108 9.94938C17.051 9.87513 17.2012 9.64479 17.2701 9.41473Z" fill="#B32100"/>
<path d="M16.0495 9.01788C15.9662 9.29773 16.0177 9.60063 15.9482 9.88554C15.7424 11.123 14.9143 12.2287 13.7924 12.783C13.234 13.0641 12.6173 13.2101 11.9922 13.2093C11.367 13.2085 10.7507 13.061 10.193 12.7785C9.08149 12.2256 8.25914 11.1287 8.04792 9.90438C7.98042 9.61807 8.01867 9.31741 7.95005 9.03335C7.8308 8.69585 7.29361 8.68601 7.16424 9.0221C7.07986 9.33316 7.1558 9.66251 7.18758 9.97723C7.42383 11.5072 8.44783 12.8815 9.83496 13.5635C10.4724 13.8789 11.1712 14.051 11.8822 14.0678C12.5933 14.0846 13.2994 13.9457 13.951 13.6608C15.451 13.0131 16.5723 11.5666 16.8122 9.94833C16.8412 9.6457 16.9106 9.33042 16.8336 9.03089C16.7126 8.69536 16.1828 8.68608 16.0503 9.01683L16.0495 9.01788Z" fill="white"/>
<path d="M4.40625 3C4.03329 3 3.6756 3.14816 3.41188 3.41188C3.14816 3.6756 3 4.03329 3 4.40625V7.07812C3 6.70516 3.14816 6.34748 3.41188 6.08376C3.6756 5.82003 4.03329 5.67188 4.40625 5.67188H19.5938C19.9667 5.67188 20.3244 5.82003 20.5881 6.08376C20.8518 6.34748 21 6.70516 21 7.07812V4.40625C21 4.03329 20.8518 3.6756 20.5881 3.41188C20.3244 3.14816 19.9667 3 19.5938 3H4.40625Z" fill="#FF9900"/>
</svg>

<svg xmlns="http://www.w3.org/2000/svg" width="24" height="24" fill="none" viewBox="0 0 24 24"><path fill="#e62e04" d="M4.4063 3A1.4063 1.4063 0 0 0 3 4.4063v15.1875A1.406 1.406 0 0 0 4.4063 21h15.1875A1.4063 1.4063 0 0 0 21 19.5938V4.4062A1.4064 1.4064 0 0 0 19.5938 3z"/><path fill="#b32100" d="M7.95 9.0334c.069.2812.0301.585.098.871.2362-.173.3937-.4585.3613-.7557-.0047-.5322-.6033-.9493-1.1042-.7701-.315.09-.5478.3727-.6007.6919-.063.3656.1566.7397.4832.9067-.0324-.315-.108-.6469-.0234-.9551.1294-.3358.6663-.329.7858.0113m9.3201.3813c.1148-.4129-.135-.8915-.5445-1.0237-.3937-.1547-.8811.0422-1.0547.4258-.1935.3552-.0765.8606.2773 1.0687.0698-.2851.0183-.5906.1013-.8676.1322-.331.6623-.3215.783.014.0768.2999.0073.6149-.0217.9175.2402-.0743.3904-.3046.4593-.5347"/><path fill="#fff" d="M16.0495 9.0179c-.0833.2798-.0318.5827-.1013.8676-.2058 1.2375-1.0339 2.3432-2.1558 2.8975a3.993 3.993 0 0 1-3.5994-.0045c-1.1115-.5529-1.9339-1.6498-2.145-2.8741-.0676-.2863-.0293-.587-.098-.871-.1192-.3376-.6564-.3474-.7858-.0113-.0843.311-.0084.6404.0234.9551.2362 1.53 1.2602 2.9043 2.6474 3.5863a4.876 4.876 0 0 0 4.116.0973c1.5-.6477 2.6213-2.0942 2.8612-3.7125.029-.3026.0984-.6179.0214-.9174-.121-.3355-.6508-.3448-.7833-.014z"/><path fill="#f90" d="M4.4063 3A1.4063 1.4063 0 0 0 3 4.4063V7.078a1.406 1.406 0 0 1 1.4063-1.406h15.1875A1.406 1.406 0 0 1 21 7.078V4.4063A1.4064 1.4064 0 0 0 19.5938 3z"/></svg>
